X:1
T:Heraldist Gordon Macpherson
C:R. Gordon M. Mcpherson
R:Jig
Q:180
K:C
M:6/8
L:1/16
|:a2|c2B2c2 A4c2|f2d2e2 A2c2a2|e4A2 a2e2d2|c2B2A2 G2B2a2|
c2B2c2 A4c2|f2d2e2 A2c2a2|f2d2a2 e2G2B2|A6A4:|
|:g2|a2e2e2 d2c2B2|c2A2c2 e2c2a2|f2d2f2 a2g2f2|
|1e2c2A2 G2B2g2|a2e2e2 d2c2B2|c2A2c2 e2c2a2|f2d2a2 e2G2B2|A6A4:|
|2e2c2A2 G2B2a2|c2B2c2 A4c2|f2d2e2 A2c2a2|f2d2a2 e2G2B2|A6A4||
